public/orangeLink.svg

<svg width="345" height="304" viewBox="0 0 345 304" fill="#fad207" xmlns="http://www.w3.org/2000/svg">
<path d="M177.011 26.166C177.011 26.166 197.832 -0.456045 232.016 1.06259C266.2 2.58122 296.757 23.6043 306.233 58.4791C315.448 92.3876 306.93 122.208 290.195 139.189C273.966 155.641 240.142 157.175 240.142 157.175M228.62 228.397C228.62 228.397 241.706 229.502 249.694 249.735C259.913 275.62 236.202 301 236.202 301C236.984 284.679 215.02 282.124 197.687 273.458C180.353 264.791 185.451 238.767 192.589 226.656C199.726 214.545 214.698 209.545 223.606 213.265C231.341 216.494 225.048 230.299 216.3 223.327C203.283 212.95 207.891 190.309 266.008 174.279C324.126 158.249 343 221.418 343 221.418C343 221.418 334.506 217 314.788 221.755C295.071 226.518 299.494 231.273 275.698 232.301C251.902 233.321 224.457 203.831 224.457 203.831M224.457 203.838C224.457 203.838 300.123 176.357 311.576 196.836C323.029 217.314 255.628 186.535 255.628 186.535M204.142 234.219C204.142 234.219 228.106 259.414 231.165 264.514C234.224 269.615 229.632 278.029 223.775 274.209C217.91 270.382 224.465 239.557 224.465 239.557M263.317 204.206C263.317 204.206 275.767 206.829 284.606 215.328M33.9669 50.119C50.3957 28.8658 87.8988 9.79855 133.275 14.899C178.652 19.9995 206.189 38.3611 224.028 70.4978C241.875 102.634 239.322 166.908 221.475 191.904C203.636 216.908 173.393 250.149 114.692 247.971C58.2152 245.877 15.384 209.046 3.53971 155.986C-6.97835 108.862 17.5306 71.3798 33.9669 50.119ZM81.6048 106.554C77.2351 108.249 75.9932 118.289 81.6048 119.815C87.2165 121.349 94.6911 117.775 93.3342 113.181C91.9696 108.594 86.8715 104.514 81.6048 106.554ZM192.228 81.0822C194.245 77.2396 189.561 70.7969 184.946 73.6501C180.323 76.5033 177.249 83.4522 180.683 85.1242C184.125 86.7962 189.798 85.7148 192.228 81.0822ZM87.2165 144.796C85.3766 148.723 90.3443 154.943 94.8291 151.883C99.3138 148.822 102.074 141.743 98.5625 140.232C95.0591 138.721 89.4321 140.063 87.2165 144.796ZM272.425 39.2585C270.715 40.6084 275.928 62.4751 270.324 64.0781C264.72 65.6811 264.122 59.3918 266.821 58.5865C269.519 57.7888 280.674 75.744 283.035 75.023C285.396 74.3097 282.138 50.3491 286.937 51.0394C291.744 51.722 291.943 57.5587 288.938 57.9039C285.94 58.2414 274.134 37.9086 272.425 39.2585ZM166.754 48.7307C172.473 60.8568 136.349 136.995 126.874 126.066C117.398 115.144 180.361 59.1541 192.704 61.8769C205.046 64.5997 230.238 117.338 218.493 127.354C206.748 137.371 125.808 143.469 127.227 134.856C128.645 126.242 206.748 126.94 211.509 139.634C216.27 152.327 215.304 160.22 208.32 175.329C201.336 190.439 193.118 210.296 176.474 206.822C159.839 203.347 116.908 148.937 126.598 142.909C136.288 136.88 162.913 200.755 154.143 218.649C146.837 233.567 86.8102 238.03 81.1908 215.404C74.6209 188.943 110.721 140.209 116.67 143.407C122.619 146.606 87.7761 206.76 61.2663 204.206C34.7566 201.645 22.2606 155.081 28.8459 138.069C35.4312 121.057 110.637 126.189 112.339 134.234C114.041 142.272 33.4916 122.492 27.328 113.104C21.1643 103.716 48.7704 46.3838 74.3986 50.2187C100.027 54.0536 127.403 123.435 119.829 127.408C112.254 131.381 78.4617 54.7439 94.8521 39.78C111.242 24.8161 158.888 32.0335 166.754 48.7307Z" stroke="black" stroke-width="7" stroke-miterlimit="10"/>
</svg>

<svg xmlns="http://www.w3.org/2000/svg" width="345" height="304" fill="#fad207"><path stroke="#000" stroke-miterlimit="10" stroke-width="7" d="M177.011 26.166S197.832-.456 232.016 1.063c34.184 1.518 64.741 22.541 74.217 57.416 9.215 33.909.697 63.729-16.038 80.71-16.229 16.452-50.053 17.986-50.053 17.986m-11.522 71.222s13.086 1.105 21.074 21.338C259.913 275.62 236.202 301 236.202 301c.782-16.321-21.182-18.876-38.515-27.542-17.334-8.667-12.236-34.691-5.098-46.802 7.137-12.111 22.109-17.111 31.017-13.391 7.735 3.229 1.442 17.034-7.306 10.062-13.017-10.377-8.409-33.018 49.708-49.048C324.126 158.249 343 221.418 343 221.418s-8.494-4.418-28.212.337c-19.717 4.763-15.294 9.518-39.09 10.546-23.796 1.02-51.241-28.47-51.241-28.47m0 .007s75.666-27.481 87.119-7.002c11.453 20.478-55.948-10.301-55.948-10.301m-51.486 47.684s23.964 25.195 27.023 30.295c3.059 5.101-1.533 13.515-7.39 9.695-5.865-3.827.69-34.652.69-34.652m38.852-35.351s12.45 2.623 21.289 11.122M33.966 50.119c16.43-21.253 53.933-40.32 99.309-35.22 45.377 5.1 72.914 23.462 90.753 55.599 17.847 32.136 15.294 96.41-2.553 121.406-17.839 25.004-48.082 58.245-106.783 56.067-56.477-2.094-99.308-38.925-111.152-91.985C-6.978 108.862 17.53 71.38 33.967 50.119Zm47.639 56.435c-4.37 1.695-5.612 11.735 0 13.261 5.611 1.534 13.086-2.04 11.73-6.634-1.365-4.587-6.463-8.667-11.73-6.627Zm110.623-25.472c2.017-3.842-2.667-10.285-7.282-7.432-4.623 2.853-7.697 9.802-4.263 11.474 3.442 1.672 9.115.59 11.545-4.042ZM87.216 144.796c-1.84 3.927 3.128 10.147 7.613 7.087 4.485-3.061 7.245-10.14 3.734-11.651-3.504-1.511-9.13-.169-11.347 4.564ZM272.425 39.259c-1.71 1.35 3.503 23.216-2.101 24.82-5.604 1.602-6.202-4.687-3.503-5.492 2.698-.798 13.853 17.157 16.214 16.436 2.361-.713-.897-24.674 3.902-23.984 4.807.683 5.006 6.52 2.001 6.865-2.998.337-14.804-19.995-16.513-18.646ZM166.754 48.73c5.719 12.126-30.405 88.264-39.88 77.335-9.476-10.922 53.487-66.912 65.83-64.19 12.342 2.724 37.534 55.462 25.789 65.478-11.745 10.017-92.685 16.115-91.266 7.502 1.418-8.614 79.521-7.916 84.282 4.778 4.761 12.693 3.795 20.586-3.189 35.695-6.984 15.11-15.202 34.967-31.846 31.493-16.635-3.475-59.566-57.885-49.876-63.913 9.69-6.029 36.315 57.846 27.545 75.74-7.306 14.918-67.333 19.381-72.952-3.245-6.57-26.461 29.53-75.195 35.479-71.997 5.949 3.199-28.894 63.353-55.404 60.799-26.51-2.561-39.005-49.125-32.42-66.137 6.585-17.012 81.791-11.88 83.493-3.835 1.702 8.038-78.847-11.742-85.011-21.13-6.164-9.388 21.442-66.72 47.07-62.885 25.629 3.835 53.005 73.216 45.431 77.189-7.575 3.973-41.367-72.664-24.977-87.628 16.39-14.964 64.036-7.747 71.902 8.95Z"/></svg>
